packages/icons/src/components/ProductIcon/assets/memory-optimized-instances.svg

<svg width="64" height="64" viewBox="0 0 64 64" fill="none" xmlns="http://www.w3.org/2000/svg">
<g clip-path="url(#clip0_791_2096)">
<path d="M0 16C0 7.16344 7.16344 0 16 0H48C56.8366 0 64 7.16344 64 16V48C64 56.8366 56.8366 64 48 64H16C7.16344 64 0 56.8366 0 48V16Z" fill="#521094"  class="fillWeak"/>
<path fill-rule="evenodd" clip-rule="evenodd" d="M48 2H16C8.26801 2 2 8.26801 2 16V48C2 55.732 8.26801 62 16 62H48C55.732 62 62 55.732 62 48V16C62 8.26801 55.732 2 48 2ZM16 0C7.16344 0 0 7.16344 0 16V48C0 56.8366 7.16344 64 16 64H48C56.8366 64 64 56.8366 64 48V16C64 7.16344 56.8366 0 48 0H16Z" fill="#521094" class="fillWeak"/>
<path fill-rule="evenodd" clip-rule="evenodd" d="M25.4933 12.8834C25.4355 12.386 25.0128 12 24.5 12C23.9477 12 23.5 12.4477 23.5 13V18H23C20.2386 18 18 20.2386 18 23V23.5H13L12.8834 23.5067C12.386 23.5645 12 23.9872 12 24.5C12 25.0523 12.4477 25.5 13 25.5H18V28.5H13L12.8834 28.5067C12.386 28.5645 12 28.9872 12 29.5C12 30.0523 12.4477 30.5 13 30.5H18V33.5H13L12.8834 33.5067C12.386 33.5645 12 33.9872 12 34.5C12 35.0523 12.4477 35.5 13 35.5H18V38.5H13L12.8834 38.5067C12.386 38.5645 12 38.9872 12 39.5C12 40.0523 12.4477 40.5 13 40.5H18V41C18 43.7614 20.2386 46 23 46H23.5V50.8283L23.5067 50.9449C23.5645 51.4422 23.9872 51.8283 24.5 51.8283C25.0523 51.8283 25.5 51.3806 25.5 50.8283V46H28.5V50.8283L28.5067 50.9449C28.5645 51.4422 28.9872 51.8283 29.5 51.8283C30.0523 51.8283 30.5 51.3806 30.5 50.8283V46H33.5V50.8283L33.5067 50.9449C33.5645 51.4422 33.9872 51.8283 34.5 51.8283C35.0523 51.8283 35.5 51.3806 35.5 50.8283V46H38.5V50.8283L38.5067 50.9449C38.5645 51.4422 38.9872 51.8283 39.5 51.8283C40.0523 51.8283 40.5 51.3806 40.5 50.8283V46H41C43.7614 46 46 43.7614 46 41V40.5H50.8283L50.9449 40.4933C51.4422 40.4355 51.8283 40.0128 51.8283 39.5C51.8283 38.9477 51.3806 38.5 50.8283 38.5H46V35.5H50.8283L50.9449 35.4933C51.4422 35.4355 51.8283 35.0128 51.8283 34.5C51.8283 33.9477 51.3806 33.5 50.8283 33.5H46V30.5H50.8283L50.9449 30.4933C51.4422 30.4355 51.8283 30.0128 51.8283 29.5C51.8283 28.9477 51.3806 28.5 50.8283 28.5H46V25.5H50.8283L50.9449 25.4933C51.4422 25.4355 51.8283 25.0128 51.8283 24.5C51.8283 23.9477 51.3806 23.5 50.8283 23.5H46V23C46 20.2386 43.7614 18 41 18H40.5V13L40.4933 12.8834C40.4355 12.386 40.0128 12 39.5 12C38.9477 12 38.5 12.4477 38.5 13V18H35.5V13L35.4933 12.8834C35.4355 12.386 35.0128 12 34.5 12C33.9477 12 33.5 12.4477 33.5 13V18H30.5V13L30.4933 12.8834C30.4355 12.386 30.0128 12 29.5 12C28.9477 12 28.5 12.4477 28.5 13V18H25.5V13L25.4933 12.8834ZM44 24.5V23C44 21.4023 42.7511 20.0963 41.1763 20.0051L41 20H23C21.4023 20 20.0963 21.2489 20.0051 22.8237L20 23V41C20 42.5977 21.2489 43.9037 22.8237 43.9949L23 44H24.5H29.5H34.5H39.5H41C42.5977 44 43.9037 42.7511 43.9949 41.1763L44 41V39.5V34.5V29.5V24.5Z" fill="white" class="fill"/>
<path d="M29.0552 28.4104V35.3904H27.7206V30.8504L25.938 35.3904H24.9275L23.1354 30.8504V35.3904H21.8008V28.4104H23.3165L25.4328 33.6004L27.549 28.4104H29.0552Z" fill="#BF95F9" class="fillStrong"/>
<path d="M31.4233 29.5404V31.2904H33.6635V32.4004H31.4233V34.2504H33.9495V35.3904H30.0887V28.4004H33.9495V29.5404H31.4233Z" fill="#BF95F9" class="fillStrong"/>
<path d="M42.1308 28.4104V35.3904H40.7962V30.8504L39.0136 35.3904H38.0031L36.2109 30.8504V35.3904H34.8763V28.4104H36.392L38.5083 33.6004L40.6246 28.4104H42.1308Z" fill="#BF95F9" class="fillStrong"/>
</g>
</svg>

<svg xmlns="http://www.w3.org/2000/svg" width="64" height="64" fill="none" viewBox="0 0 64 64">
    <g clip-path="url(#clip0_791_2096)">
        <path fill="#521094" d="M0 16C0 7.163 7.163 0 16 0h32c8.837 0 16 7.163 16 16v32c0 8.837-7.163 16-16 16H16C7.163 64 0 56.837 0 48z" class="fillWeak"/>
        <path fill="#521094" fill-rule="evenodd" d="M48 2H16C8.268 2 2 8.268 2 16v32c0 7.732 6.268 14 14 14h32c7.732 0 14-6.268 14-14V16c0-7.732-6.268-14-14-14M16 0C7.163 0 0 7.163 0 16v32c0 8.837 7.163 16 16 16h32c8.837 0 16-7.163 16-16V16c0-8.837-7.163-16-16-16z" class="fillWeak" clip-rule="evenodd"/>
        <path fill="#fff" fill-rule="evenodd" d="M25.493 12.883A1 1 0 0 0 23.5 13v5H23a5 5 0 0 0-5 5v.5h-5l-.117.007A1 1 0 0 0 13 25.5h5v3h-5l-.117.007A1 1 0 0 0 13 30.5h5v3h-5l-.117.007A1 1 0 0 0 13 35.5h5v3h-5l-.117.007A1 1 0 0 0 13 40.5h5v.5a5 5 0 0 0 5 5h.5v4.828l.007.117a1 1 0 0 0 1.993-.117V46h3v4.828l.007.117a1 1 0 0 0 1.993-.117V46h3v4.828l.007.117a1 1 0 0 0 1.993-.117V46h3v4.828l.007.117a1 1 0 0 0 1.993-.117V46h.5a5 5 0 0 0 5-5v-.5h4.828l.117-.007a1 1 0 0 0-.117-1.993H46v-3h4.828l.117-.007a1 1 0 0 0-.117-1.993H46v-3h4.828l.117-.007a1 1 0 0 0-.117-1.993H46v-3h4.828l.117-.007a1 1 0 0 0-.117-1.993H46V23a5 5 0 0 0-5-5h-.5v-5l-.007-.117A1 1 0 0 0 38.5 13v5h-3v-5l-.007-.117A1 1 0 0 0 33.5 13v5h-3v-5l-.007-.117A1 1 0 0 0 28.5 13v5h-3v-5zM44 24.5V23a3 3 0 0 0-2.824-2.995L41 20H23a3 3 0 0 0-2.995 2.824L20 23v18a3 3 0 0 0 2.824 2.995L23 44h18a3 3 0 0 0 2.995-2.824L44 41z" class="fill" clip-rule="evenodd"/>
        <path fill="#bf95f9" d="M29.055 28.41v6.98h-1.334v-4.54l-1.783 4.54h-1.01l-1.793-4.54v4.54h-1.334v-6.98h1.516l2.116 5.19 2.116-5.19zm2.368 1.13v1.75h2.24v1.11h-2.24v1.85h2.527v1.14h-3.861V28.4h3.86v1.14zm10.707-1.13v6.98h-1.334v-4.54l-1.782 4.54h-1.01l-1.793-4.54v4.54h-1.335v-6.98h1.516l2.116 5.19 2.117-5.19z" class="fillStrong"/>
    </g>
</svg>
